X: 1
T: Blossom Of Ballisland, The
M: 6/8
L: 1/8
R: jig
K: Amaj
~c2B |:AGA ~B3 |cAA ABc |BGE ~E3 |BGE EFG |
AGA BAB |cAA ABc |BGE dcB |1 AFF F2G:|2 AFF F2B||
|: cff fga|gbg agf |ecA A{c}BA |ecA A2B|cff fga|
gfg agf |1ecA ~B3 |cAA A2B:|2ecA BAG |AFF EFG||
